packages/sources/assets/src/assets/flag-fm.svg

<svg width="28" height="20" viewBox="0 0 28 20" fill="none" xmlns="http://www.w3.org/2000/svg">
<rect width="28" height="20" rx="2" fill="white"/>
<mask id="mask0_503_3017" style="mask-type:alpha" maskUnits="userSpaceOnUse" x="0" y="0" width="28" height="20">
<rect width="28" height="20" rx="2" fill="white"/>
</mask>
<g mask="url(#mask0_503_3017)">
<rect width="28" height="20" fill="#95CEF5"/>
<path fill-rule="evenodd" clip-rule="evenodd" d="M12.4326 6.82405L14 5.76L15.5674 6.82405L15.0398 5.00453L16.5362 3.84262L14.6427 3.78214L14 2L13.3574 3.78214L11.4639 3.84262L12.9602 5.00453L12.4326 6.82405ZM12.4326 17.4907L14 16.4267L15.5674 17.4907L15.0398 15.6712L16.5362 14.5093L14.6427 14.4488L14 12.6667L13.3574 14.4488L11.4639 14.5093L12.9602 15.6712L12.4326 17.4907ZM19.3333 11.0933L17.7659 12.1574L18.2935 10.3379L16.7972 9.17595L18.6907 9.11547L19.3333 7.33333L19.976 9.11547L21.8695 9.17595L20.3732 10.3379L20.9008 12.1574L19.3333 11.0933ZM7.09925 12.1574L8.66667 11.0933L10.2341 12.1574L9.7065 10.3379L11.2028 9.17595L9.30932 9.11547L8.66667 7.33333L8.02403 9.11547L6.13052 9.17595L7.62685 10.3379L7.09925 12.1574Z" fill="white"/>
</g>
</svg>

<svg width="28" height="20" fill="none" xmlns="http://www.w3.org/2000/svg"><rect width="28" height="20" rx="2" fill="#fff"/><mask id="a" style="mask-type:alpha" maskUnits="userSpaceOnUse" x="0" y="0" width="28" height="20"><rect width="28" height="20" rx="2" fill="#fff"/></mask><g mask="url(#a)"><path fill="#95CEF5" d="M0 0h28v20H0z"/><path fill-rule="evenodd" clip-rule="evenodd" d="M12.433 6.824 14 5.76l1.567 1.064-.527-1.82 1.496-1.161-1.893-.06L14 2l-.643 1.782-1.893.06 1.496 1.163-.527 1.819Zm0 10.667L14 16.427l1.567 1.064-.527-1.82 1.496-1.162-1.893-.06L14 12.667l-.643 1.782-1.893.06 1.496 1.162-.527 1.82Zm6.9-6.398-1.567 1.064.528-1.82-1.497-1.161 1.894-.06.642-1.783.643 1.782 1.893.061-1.496 1.162.528 1.82-1.568-1.065ZM7.1 12.157l1.568-1.064 1.567 1.064-.527-1.82 1.496-1.161-1.894-.06-.642-1.783-.643 1.782-1.893.061 1.496 1.162-.528 1.82Z" fill="#fff"/></g></svg>
